images/like-button.svg

<svg width="21" height="18" viewBox="0 0 21 18" fill="none" xmlns="http://www.w3.org/2000/svg">
<path d="M19.3764 9.27081C21.5412 7.14636 21.5412 3.69676 19.3764 1.59334C17.2115 -0.531113 13.6964 -0.531113 11.5315 1.59334L10.4812 2.64505L9.43098 1.61437C7.26614 -0.531113 3.75096 -0.531113 1.60755 1.59334C0.557285 2.62401 0 3.99124 0 5.44259C0 6.89395 0.578719 8.26117 1.60755 9.29185L10.4812 18L19.3764 9.27081ZM1.37178 5.44259C1.37178 4.34882 1.80046 3.33918 2.59352 2.58195C3.40801 1.78265 4.45828 1.383 5.50855 1.383C6.55882 1.383 7.60909 1.78265 8.42358 2.58195L10.4812 4.58019L12.5389 2.56091C14.1465 0.983348 16.7829 0.983348 18.369 2.56091C19.1406 3.31814 19.5907 4.32778 19.5907 5.42156C19.5907 6.51534 19.162 7.52498 18.369 8.28221L10.4812 16.0438L2.59352 8.30324C1.82189 7.52498 1.37178 6.51534 1.37178 5.44259Z" fill="black"/>
</svg>

<svg xmlns="http://www.w3.org/2000/svg" width="21" height="18" fill="none"><path fill="#000" d="M19.376 9.27a5.35 5.35 0 0 0 0-7.677c-2.165-2.124-5.68-2.124-7.845 0l-1.05 1.052-1.05-1.03C7.266-.532 3.751-.532 1.608 1.592A5.34 5.34 0 0 0 0 5.443C0 6.894.579 8.26 1.608 9.292L10.48 18l8.895-8.73ZM1.372 5.444c0-1.094.428-2.104 1.222-2.861a4.15 4.15 0 0 1 2.915-1.199c1.05 0 2.1.4 2.915 1.199L10.48 4.58l2.058-2.02c1.607-1.577 4.244-1.577 5.83 0a3.99 3.99 0 0 1 1.222 2.862 3.906 3.906 0 0 1-1.222 2.86l-7.888 7.762-7.887-7.74c-.772-.779-1.222-1.789-1.222-2.861Z"/></svg>
